icon.svg

<?xml version="1.0" encoding="UTF-8" standalone="no"?>
<svg version="1.1" xmlns="http://www.w3.org/2000/svg" xmlns:xlink="http://www.w3.org/1999/xlink" x="0px" y="0px" width="477.688px" height="670.725px" viewBox="0 0 477.688 670.725">
	<g fill="#336">
		<path d="M238.688,0.021c0,0-197.877-6.5-238.688,213v149.5c0,0,1.688,16,46.688,48.5s161.5,124,192,124s147-91.5,192-124 s46.688-48.5,46.688-48.5v-149.5C436.565-6.479,238.688,0.021,238.688,0.021z M374.188,294.521h-135.5h-135.5v-81.5 c27.5-109,135.5-110.5,135.5-110.5s108,1.5,135.5,110.5V294.521z"/>
		<path d="M238.688,568.688c0,0-30.667-3.001-54.667-19.667S0,418.021,0,418.021v226.334c0,0,1.355,26.333,30.355,26.333 s208.333,0,208.333,0s179.333,0,208.333,0s30.355-26.333,30.355-26.333V418.021c0,0-160.022,114.334-184.022,131 S238.688,568.688,238.688,568.688z"/>
	</g>
</svg>

<?xml version="1.0" encoding="UTF-8" standalone="no"?>
<!DOCTYPE svg PUBLIC "-//W3C//DTD SVG 1.1//EN" "http://www.w3.org/Graphics/SVG/1.1/DTD/svg11.dtd">
<svg width="100%" height="100%" viewBox="0 0 1024 1024" version="1.1" xmlns="http://www.w3.org/2000/svg" xmlns:xlink="http://www.w3.org/1999/xlink" xml:space="preserve" style="fill-rule:evenodd;clip-rule:evenodd;stroke-linejoin:round;stroke-miterlimit:1.41421;">
    <g transform="matrix(1.52334,0,0,1.52334,148,0.999645)">
        <path d="M238.688,0.021C238.688,0.021 40.811,-6.479 0,213.021L0,362.521C0,362.521 1.688,378.521 46.688,411.021C91.688,443.521 208.188,535.021 238.688,535.021C269.188,535.021 385.688,443.521 430.688,411.021C475.688,378.521 477.376,362.521 477.376,362.521L477.376,213.021C436.565,-6.479 238.688,0.021 238.688,0.021ZM374.188,294.521L238.688,294.521L103.188,294.521L103.188,213.021C130.688,104.021 238.688,102.521 238.688,102.521C238.688,102.521 346.688,104.021 374.188,213.021L374.188,294.521Z" style="fill:rgb(51,51,102);fill-rule:nonzero;"/>
        <path d="M238.688,568.688C238.688,568.688 208.021,565.687 184.021,549.021C160.021,532.355 0,418.021 0,418.021L0,644.355C0,644.355 1.355,670.688 30.355,670.688L447.021,670.688C476.021,670.688 477.376,644.355 477.376,644.355L477.376,418.021C477.376,418.021 317.354,532.355 293.354,549.021C269.354,565.687 238.688,568.688 238.688,568.688Z" style="fill:rgb(51,51,102);fill-rule:nonzero;"/>
    </g>
</svg>
